SF_Symbols/cloud.rain.svg

<?xml version="1.0" encoding="UTF-8"?>
<svg xmlns="http://www.w3.org/2000/svg" xmlns:xlink="http://www.w3.org/1999/xlink" width="24" height="24" viewBox="0 0 24 24" version="1.1">
<g id="surface1">
<path style=" stroke:none;fill-rule:nonzero;fill:rgb(100%,100%,100%);fill-opacity:1;" d="M 5.238281 15.472656 L 17.488281 15.472656 C 18.296875 15.472656 19.042969 15.332031 19.726562 15.050781 C 20.417969 14.765625 21.015625 14.371094 21.523438 13.863281 C 22.035156 13.359375 22.429688 12.773438 22.707031 12.109375 C 22.988281 11.445312 23.132812 10.734375 23.132812 9.976562 C 23.132812 9.1875 22.980469 8.464844 22.675781 7.804688 C 22.382812 7.140625 21.964844 6.566406 21.425781 6.078125 C 20.890625 5.585938 20.265625 5.203125 19.550781 4.933594 C 18.832031 4.664062 18.054688 4.53125 17.21875 4.53125 C 16.8125 3.71875 16.289062 3.015625 15.652344 2.417969 C 15.019531 1.8125 14.300781 1.34375 13.488281 1.015625 C 12.679688 0.6875 11.800781 0.523438 10.84375 0.523438 C 9.917969 0.523438 9.042969 0.695312 8.21875 1.035156 C 7.40625 1.371094 6.675781 1.839844 6.03125 2.4375 C 5.386719 3.035156 4.863281 3.734375 4.460938 4.53125 C 4.066406 5.324219 3.828125 6.179688 3.75 7.09375 C 3.152344 7.265625 2.613281 7.550781 2.140625 7.945312 C 1.667969 8.332031 1.292969 8.804688 1.015625 9.363281 C 0.738281 9.925781 0.601562 10.550781 0.601562 11.25 C 0.601562 12.027344 0.78125 12.738281 1.144531 13.382812 C 1.511719 14.019531 2.042969 14.53125 2.734375 14.910156 C 3.425781 15.285156 4.261719 15.472656 5.238281 15.472656 Z M 5.21875 13.894531 C 4.542969 13.894531 3.980469 13.78125 3.53125 13.550781 C 3.085938 13.320312 2.746094 13.011719 2.515625 12.621094 C 2.292969 12.226562 2.179688 11.785156 2.179688 11.300781 C 2.179688 10.707031 2.363281 10.167969 2.734375 9.679688 C 3.101562 9.1875 3.707031 8.828125 4.550781 8.605469 C 4.824219 8.53125 5.019531 8.425781 5.132812 8.28125 C 5.242188 8.136719 5.3125 7.925781 5.339844 7.648438 C 5.390625 6.839844 5.574219 6.097656 5.882812 5.425781 C 6.199219 4.75 6.605469 4.164062 7.105469 3.671875 C 7.605469 3.171875 8.175781 2.785156 8.8125 2.515625 C 9.457031 2.238281 10.136719 2.101562 10.84375 2.101562 C 11.957031 2.101562 12.941406 2.398438 13.796875 2.988281 C 14.652344 3.574219 15.34375 4.414062 15.878906 5.507812 C 15.988281 5.75 16.128906 5.921875 16.292969 6.019531 C 16.457031 6.113281 16.6875 6.15625 16.984375 6.15625 C 17.957031 6.15625 18.78125 6.335938 19.460938 6.691406 C 20.144531 7.039062 20.664062 7.507812 21.019531 8.09375 C 21.375 8.675781 21.550781 9.320312 21.550781 10.015625 C 21.550781 10.734375 21.378906 11.386719 21.03125 11.96875 C 20.679688 12.554688 20.207031 13.023438 19.609375 13.371094 C 19.011719 13.71875 18.335938 13.894531 17.585938 13.894531 Z M 5.496094 20.09375 L 6.78125 17.863281 C 6.871094 17.710938 6.894531 17.558594 6.847656 17.40625 C 6.808594 17.25 6.71875 17.128906 6.574219 17.042969 C 6.421875 16.957031 6.269531 16.9375 6.117188 16.984375 C 5.96875 17.023438 5.84375 17.117188 5.753906 17.269531 L 4.460938 19.519531 C 4.375 19.65625 4.351562 19.800781 4.390625 19.953125 C 4.429688 20.113281 4.53125 20.234375 4.6875 20.320312 C 4.832031 20.398438 4.984375 20.414062 5.140625 20.367188 C 5.300781 20.328125 5.417969 20.238281 5.496094 20.09375 Z M 7.796875 22.90625 L 10.707031 17.851562 C 10.792969 17.707031 10.816406 17.558594 10.777344 17.40625 C 10.738281 17.257812 10.648438 17.136719 10.511719 17.050781 C 10.363281 16.96875 10.214844 16.945312 10.054688 16.984375 C 9.898438 17.023438 9.777344 17.117188 9.691406 17.269531 L 6.800781 22.300781 C 6.714844 22.453125 6.691406 22.605469 6.730469 22.757812 C 6.769531 22.914062 6.863281 23.035156 7.007812 23.121094 C 7.152344 23.199219 7.296875 23.21875 7.441406 23.179688 C 7.59375 23.140625 7.710938 23.050781 7.796875 22.90625 Z M 13.351562 20.082031 L 14.636719 17.851562 C 14.726562 17.699219 14.75 17.550781 14.703125 17.398438 C 14.664062 17.238281 14.570312 17.117188 14.417969 17.03125 C 14.273438 16.949219 14.121094 16.925781 13.964844 16.972656 C 13.8125 17.011719 13.695312 17.109375 13.609375 17.261719 L 12.316406 19.511719 C 12.230469 19.648438 12.207031 19.792969 12.246094 19.945312 C 12.285156 20.101562 12.382812 20.222656 12.53125 20.308594 C 12.675781 20.386719 12.828125 20.40625 12.988281 20.359375 C 13.144531 20.320312 13.265625 20.226562 13.351562 20.082031 Z M 15.640625 22.894531 L 18.5625 17.84375 C 18.648438 17.699219 18.671875 17.550781 18.632812 17.398438 C 18.59375 17.246094 18.5 17.128906 18.355469 17.042969 C 18.21875 16.957031 18.070312 16.933594 17.910156 16.972656 C 17.753906 17.011719 17.632812 17.109375 17.546875 17.261719 L 14.644531 22.292969 C 14.558594 22.445312 14.535156 22.59375 14.574219 22.746094 C 14.613281 22.90625 14.707031 23.027344 14.851562 23.113281 C 14.996094 23.191406 15.140625 23.210938 15.285156 23.171875 C 15.4375 23.132812 15.554688 23.039062 15.640625 22.894531 Z M 15.640625 22.894531 "/>
</g>
</svg>

<svg xmlns="http://www.w3.org/2000/svg" width="24" height="24"><path style="stroke:none;fill-rule:nonzero;fill:#fff;fill-opacity:1" d="M5.238 15.473h12.25c.809 0 1.555-.141 2.239-.422a5.48 5.48 0 0 0 2.98-2.942c.285-.675.43-1.398.426-2.132 0-.79-.153-1.512-.457-2.172a5.065 5.065 0 0 0-1.25-1.727 5.756 5.756 0 0 0-1.875-1.144 6.585 6.585 0 0 0-2.332-.403 7.367 7.367 0 0 0-1.567-2.113 6.77 6.77 0 0 0-2.164-1.402C12.68.687 11.801.523 10.844.523c-.926 0-1.801.172-2.625.512A7.34 7.34 0 0 0 4.46 4.531c-.399.801-.64 1.672-.711 2.563a4.35 4.35 0 0 0-1.61.851c-.472.387-.847.86-1.124 1.418-.278.563-.414 1.188-.414 1.887 0 .777.18 1.488.543 2.133.367.637.898 1.148 1.59 1.527.69.375 1.527.563 2.503.563Zm-.02-1.578c-.675 0-1.238-.114-1.687-.344-.445-.23-.785-.54-1.015-.93a2.646 2.646 0 0 1-.336-1.32c0-.594.183-1.133.554-1.621.368-.492.973-.852 1.817-1.075.273-.074.469-.18.582-.324.11-.144.18-.355.207-.633.05-.808.234-1.55.543-2.222.3-.653.715-1.246 1.222-1.754.5-.5 1.07-.887 1.707-1.156a5.04 5.04 0 0 1 2.032-.414c1.113 0 2.097.296 2.953.886.855.586 1.547 1.426 2.082 2.52.11.242.25.414.414.512.164.093.395.136.691.136.973 0 1.797.18 2.477.535.684.348 1.203.817 1.559 1.403.355.582.53 1.226.53 1.922 0 .718-.171 1.37-.519 1.953a3.945 3.945 0 0 1-1.422 1.402c-.597.348-1.273.524-2.023.524Zm.278 6.199 1.285-2.23c.09-.134.114-.302.067-.458a.571.571 0 0 0-.274-.363.554.554 0 0 0-.457-.059.592.592 0 0 0-.363.286L4.46 19.52a.532.532 0 0 0-.07.433c.039.16.14.281.296.367.137.078.301.094.454.047a.535.535 0 0 0 .355-.273Zm2.3 2.812 2.911-5.054a.577.577 0 0 0-.203-.805.584.584 0 0 0-.45-.063.557.557 0 0 0-.363.286l-2.89 5.03a.604.604 0 0 0-.07.458c.039.156.132.277.277.363a.562.562 0 0 0 .433.059.56.56 0 0 0 .356-.274Zm5.556-2.824 1.285-2.23c.09-.153.113-.301.066-.454a.555.555 0 0 0-.285-.367.56.56 0 0 0-.453-.058.573.573 0 0 0-.356.289l-1.293 2.25a.532.532 0 0 0-.07.433c.04.157.137.278.285.364.14.078.305.097.457.05a.577.577 0 0 0 .364-.277Zm2.289 2.813 2.921-5.051a.565.565 0 0 0-.207-.8.58.58 0 0 0-.453-.071.573.573 0 0 0-.355.289l-2.902 5.031a.588.588 0 0 0 .648.879.574.574 0 0 0 .348-.277Zm0 0"/></svg>
